libs/icons/src/svg/twitter.svg

<svg width="16" height="16" viewBox="0 0 16 16" fill="none" xmlns="http://www.w3.org/2000/svg">
<path d="M16 3.06666C15.4 3.33333 14.8 3.53333 14.1333 3.59999C14.8 3.19999 15.3333 2.53333 15.6 1.79999C14.9333 2.19999 14.2667 2.46666 13.5333 2.59999C12.9333 1.93333 12.0667 1.53333 11.1333 1.53333C9.33333 1.53333 7.86667 2.99999 7.86667 4.79999C7.86667 5.06666 7.86667 5.33333 7.93333 5.53333C5.13333 5.39999 2.73333 4.06666 1.13333 2.06666C0.8 2.59999 0.666667 3.13333 0.666667 3.73333C0.666667 4.86666 1.26667 5.86666 2.13333 6.46666C1.6 6.46666 1.06667 6.33333 0.666667 6.06666C0.666667 6.06666 0.666667 6.06666 0.666667 6.13333C0.666667 7.73333 1.8 9.06666 3.26667 9.33333C3 9.39999 2.73333 9.46666 2.4 9.46666C2.2 9.46666 2 9.46666 1.8 9.39999C2.2 10.7333 3.4 11.6667 4.86667 11.6667C3.73333 12.5333 2.33333 13.0667 0.8 13.0667C0.533333 13.0667 0.266667 13.0667 0 13C1.46667 13.9333 3.2 14.4667 5 14.4667C11.0667 14.4667 14.3333 9.46666 14.3333 5.13333C14.3333 4.99999 14.3333 4.86666 14.3333 4.73333C15 4.26666 15.5333 3.66666 16 3.06666Z" fill="#202327"/>
</svg>

<svg xmlns="http://www.w3.org/2000/svg" viewBox="0 0 16 16" class="sageicon"><path d="M16 3.067c-.6.266-1.2.466-1.867.533A3.55 3.55 0 0 0 15.6 1.8c-.667.4-1.333.667-2.067.8a3.227 3.227 0 0 0-2.4-1.067A3.272 3.272 0 0 0 7.867 4.8c0 .267 0 .533.066.733a9.205 9.205 0 0 1-6.8-3.466 3.009 3.009 0 0 0-.466 1.666c0 1.134.6 2.134 1.466 2.734-.533 0-1.066-.134-1.466-.4v.066c0 1.6 1.133 2.934 2.6 3.2-.267.067-.534.134-.867.134-.2 0-.4 0-.6-.067a3.16 3.16 0 0 0 3.067 2.267c-1.134.866-2.534 1.4-4.067 1.4-.267 0-.533 0-.8-.067a9.332 9.332 0 0 0 5 1.467c6.067 0 9.333-5 9.333-9.334v-.4C15 4.267 15.533 3.667 16 3.067Z"/></svg>
